svg/NEPAnode-EnergyInfrastructure/Petroluem_Icon.svg

<?xml version="1.0" encoding="UTF-8" standalone="no"?>
<!-- Created with Inkscape (http://www.inkscape.org/) -->

<svg
   xmlns:dc="http://purl.org/dc/elements/1.1/"
   xmlns:cc="http://creativecommons.org/ns#"
   xmlns:rdf="http://www.w3.org/1999/02/22-rdf-syntax-ns#"
   xmlns:svg="http://www.w3.org/2000/svg"
   xmlns="http://www.w3.org/2000/svg"
   xmlns:xlink="http://www.w3.org/1999/xlink"
   xmlns:sodipodi="http://sodipodi.sourceforge.net/DTD/sodipodi-0.dtd"
   xmlns:inkscape="http://www.inkscape.org/namespaces/inkscape"
   version="1.1"
   width="250"
   height="250"
   viewBox="0 0 0.34722222 0.34722222"
   id="svg2"
   inkscape:version="0.48.4 r9939"
   sodipodi:docname="Petroluem_Icon.svg">
  <sodipodi:namedview
     pagecolor="#ffffff"
     bordercolor="#666666"
     borderopacity="1"
     objecttolerance="10"
     gridtolerance="10"
     guidetolerance="10"
     inkscape:pageopacity="0"
     inkscape:pageshadow="2"
     inkscape:window-width="1360"
     inkscape:window-height="744"
     id="namedview21"
     showgrid="false"
     inkscape:zoom="0.944"
     inkscape:cx="125"
     inkscape:cy="125"
     inkscape:window-x="0"
     inkscape:window-y="24"
     inkscape:window-maximized="1"
     inkscape:current-layer="svg2" />
  <title
     id="title4">SVG drawing</title>
  <desc
     id="desc6">This was produced by version 4.1 of GNU libplot, a free library for exporting 2-D vector graphics.</desc>
  <metadata
     id="metadata3395">
    <rdf:RDF>
      <cc:Work
         rdf:about="">
        <dc:format>image/svg+xml</dc:format>
        <dc:type
           rdf:resource="http://purl.org/dc/dcmitype/StillImage" />
        <dc:title>SVG drawing</dc:title>
      </cc:Work>
    </rdf:RDF>
  </metadata>
  <defs
     id="defs3393">
    <linearGradient
       id="linearGradient8173">
      <stop
         id="stop8175"
         style="stop-color:#000000;stop-opacity:1"
         offset="0" />
      <stop
         id="stop8177"
         style="stop-color:#000000;stop-opacity:0"
         offset="1" />
    </linearGradient>
    <linearGradient
       id="linearGradient8138">
      <stop
         id="stop8140"
         style="stop-color:#ffffff;stop-opacity:0"
         offset="0" />
      <stop
         id="stop8142"
         style="stop-color:#000000;stop-opacity:0"
         offset="1" />
    </linearGradient>
    <radialGradient
       cx="0.17569096"
       cy="0.17470571"
       r="0.16916668"
       fx="0.17569096"
       fy="0.17470571"
       id="radialGradient8144"
       xlink:href="#linearGradient8138"
       gradientUnits="userSpaceOnUse" />
    <linearGradient
       x1="-0.44731742"
       y1="0.17805582"
       x2="0.79534924"
       y2="0.17805582"
       id="linearGradient8181"
       xlink:href="#linearGradient8173"
       gradientUnits="userSpaceOnUse" />
  </defs>
  <text
     x="-0.032071669"
     y="0.3455472"
     id="text7140"
     xml:space="preserve"
     style="font-size:0.0555556px;font-style:normal;font-variant:normal;font-weight:normal;font-stretch:normal;line-height:125%;letter-spacing:0px;word-spacing:0px;fill:#000000;fill-opacity:1;stroke:none;font-family:Energy Infrastructure;-inkscape-font-specification:Energy Infrastructure"><tspan
       x="-0.032071669"
       y="0.3455472"
       id="tspan7142"
       style="font-size:0.59036261px" /></text>
  <path
     d="M 329.28829,363.4657 A 105.41456,102.94666 0 1 1 118.45918,363.4657 105.41456,102.94666 0 1 1 329.28829,363.4657 z"
     transform="matrix(0.00161659,0,0,0.00168318,-0.18770819,-0.44043665)"
     id="path3037"
     style="opacity:0;fill:#000000;fill-opacity:1;fill-rule:nonzero;stroke:#000000;stroke-opacity:1" />
  <path
     d="M 296.14793,366.28613 A 58.877029,87.434151 0 1 1 178.39388,366.28613 58.877029,87.434151 0 1 1 296.14793,366.28613 z"
     transform="matrix(0.00161659,0,0,0.00168318,-0.18770819,-0.44043665)"
     id="path3807"
     style="opacity:0;fill:#000000;fill-opacity:1;fill-rule:nonzero;stroke:#000000;stroke-width:2;stroke-linejoin:round;stroke-miterlimit:4;stroke-opacity:1;stroke-dasharray:none" />
  <g
     style="font-size:0.0555556px;font-style:normal;font-variant:normal;font-weight:normal;font-stretch:normal;line-height:125%;letter-spacing:0px;word-spacing:0px;fill:#000000;fill-opacity:1;fill-rule:evenodd;stroke:none;font-family:Energy Infrastructure;-inkscape-font-specification:Energy Infrastructure"
     id="text8169">
    <path
       d="M 0.28484927,0.20138916 0.28484927,0.3069725 C 0.29184895,0.31086143 0.29534894,0.31475032 0.29534927,0.31863917 0.29534894,0.32252809 0.29204339,0.32622253 0.2854326,0.32972251 0.27921007,0.33322252 0.27065452,0.33633363 0.25976593,0.33905584 0.24887676,0.34138918 0.23604344,0.34333362 0.22126593,0.34488917 0.20648791,0.34644473 0.19073793,0.34722251 0.17401593,0.34722251 0.15729352,0.34722251 0.14154353,0.34644473 0.12676592,0.34488917 0.111988,0.34333362 0.09915468,0.34138918 0.08826592,0.33905584 0.07737692,0.33633363 0.06862693,0.33322252 0.06201592,0.32972251 0.05579361,0.32622253 0.0526825,0.32252809 0.05268258,0.31863917 0.0526825,0.3151392 0.05540472,0.31163921 0.06084925,0.30813917 L 0.06084925,0.20138916 C 0.07523804,0.20722264 0.09215469,0.21169486 0.11159926,0.21480583 0.13143243,0.21791707 0.15184908,0.21947263 0.17284926,0.2194725 0.19384904,0.21947263 0.21407124,0.21811152 0.23351593,0.21538916 0.25334898,0.21227819 0.27046008,0.20761153 0.28484927,0.20138916 M 0.06084925,0.07480582 C 0.07523804,0.08063942 0.09215469,0.08511164 0.11159926,0.08822249 0.13143243,0.09133386 0.15184908,0.09288941 0.17284926,0.09288916 0.19384904,0.09288941 0.21407124,0.0915283 0.23351593,0.08880582 0.25334898,0.08569497 0.27046008,0.08102831 0.28484927,0.07480582 L 0.28484927,0.15647249 C 0.29184895,0.16036157 0.29534894,0.16425046 0.29534927,0.16813916 0.29534894,0.17202823 0.29204339,0.17572267 0.2854326,0.1792225 0.27921007,0.18272266 0.27065452,0.18583377 0.25976593,0.18855583 0.24887676,0.19088932 0.23604344,0.19283376 0.22126593,0.19438916 0.20648791,0.19594487 0.19073793,0.19672265 0.17401593,0.1967225 0.15729352,0.19672265 0.14154353,0.19594487 0.12676592,0.19438916 0.111988,0.19283376 0.09915468,0.19088932 0.08826592,0.18855583 0.07737692,0.18583377 0.06862693,0.18272266 0.06201592,0.1792225 0.05579361,0.17572267 0.0526825,0.17202823 0.05268258,0.16813916 0.0526825,0.16425046 0.05540472,0.16075046 0.06084925,0.15763916 L 0.06084925,0.07480582 M 0.17401593,0.00888915 C 0.19073793,0.00888949 0.20648791,0.00966727 0.22126593,0.01122248 0.23604344,0.01277837 0.24887676,0.01511171 0.25976593,0.01822248 0.27065452,0.02094503 0.27921007,0.02425059 0.2854326,0.02813915 0.29204339,0.03163947 0.29534894,0.03552835 0.29534927,0.03980582 0.29534894,0.0440839 0.29204339,0.04816723 0.2854326,0.05205582 0.27921007,0.05555611 0.27065452,0.05886166 0.25976593,0.06197249 0.24887676,0.06469499 0.23604344,0.06683388 0.22126593,0.06838915 0.20648791,0.06994499 0.19073793,0.07072276 0.17401593,0.07072249 0.15729352,0.07072276 0.14154353,0.06994499 0.12676592,0.06838915 0.111988,0.06683388 0.09915468,0.06469499 0.08826592,0.06197249 0.07737692,0.05886166 0.06862693,0.05555611 0.06201592,0.05205582 0.05579361,0.04816723 0.0526825,0.0440839 0.05268258,0.03980582 0.0526825,0.03552835 0.05579361,0.03163947 0.06201592,0.02813915 0.06862693,0.02425059 0.07737692,0.02094503 0.08826592,0.01822248 0.09915468,0.01511171 0.111988,0.01277837 0.12676592,0.01122248 0.14154353,0.00966727 0.15729352,0.00888949 0.17401593,0.00888915"
       style="font-size:0.58333337px;fill:#000000"
       id="path2999" />
  </g>
</svg>

<svg xmlns="http://www.w3.org/2000/svg" width="250" height="250" viewBox="0 0 0.34722222 0.34722222"><text x="-.032" y=".346" font-family="Energy Infrastructure" word-spacing="0" line-height="125%" letter-spacing="0" font-size=".056"><tspan x="-.032" y=".346" font-size=".59"/></text><g fill-rule="evenodd"><path d="m.285.201v.106c.007.004.001.008.011.012 0 .004-.003.008-.001.011-.006.004-.015.007-.026.009-.011.002-.024.004-.038.006-.015.002-.031.002-.047.002-.017 0-.032-.0001-.047-.002-.015-.002-.028-.003-.039-.006-.011-.003-.02-.006-.026-.009-.006-.003-.009-.007-.009-.011 0-.003.003-.007.008-.011v-.107c.014.006.031.001.051.013.02.003.04.005.061.005.021 0 .041-.0001.061-.004.02-.003.037-.008.051-.014m-.224-.127c.014.006.031.001.051.013.02.003.04.005.061.005.021 0 .041-.0001.061-.004.02-.003.037-.008.051-.014v.082c.007.004.001.008.011.012 0 .004-.003.008-.001.011-.006.004-.015.007-.026.009-.011.002-.024.004-.038.006-.015.002-.031.002-.047.002-.017 0-.032-.0001-.047-.002-.015-.002-.028-.003-.039-.006-.011-.003-.02-.006-.026-.009-.006-.003-.009-.007-.009-.011 0-.004.003-.007.008-.011v-.083m.113-.066c.017 0 .032.0001.047.002.015.002.028.004.038.007.011.003.019.006.026.001.007.004.001.007.001.012 0 .004-.003.008-.001.012-.006.004-.015.007-.026.001-.011.003-.024.005-.038.006-.015.002-.031.002-.047.002-.017 0-.032-.0001-.047-.002-.015-.002-.028-.004-.039-.006-.011-.003-.02-.006-.026-.001-.006-.004-.009-.008-.009-.012 0-.004.003-.008.009-.012.007-.004.015-.007.026-.001.011-.003.024-.005.039-.007.015-.002.031-.002.047-.002"/></g></svg>
